X: 1
T:Kesh Jig
M:6/8
L:1/8
R:Jig
N:http://www.lesession.co.uk
Z:Steve Mansfield 1998-2001
K:G
GAG GAB|ABA ABd|ede ged|ede dBA|
GAG GAB|ABA ABd|ede ged|1edB G3:|2edB G2A||:
BAB dBd|ege dBG|BAB dBG|ABA AGA|
BAB dBd|ege dBd|gfg aga |bge g3:|

